public/figma-home/chat.svg

<svg preserveAspectRatio="none" width="100%" height="100%" overflow="visible" style="display: block;" viewBox="0 0 147 147" fill="none" xmlns="http://www.w3.org/2000/svg">
<g id="chat">
<g id="Ellipse 3460" filter="url(#filter0_d_0_715)">
<circle cx="73.5" cy="73.5" r="39.5" fill="var(--fill-0, white)"/>
</g>
<path id="Vector" fill-rule="evenodd" clip-rule="evenodd" d="M65.6568 59.289C71.1363 58.8783 76.64 58.9054 82.1152 59.3699L85.4154 59.649C86.6261 59.752 87.7668 60.2571 88.6543 61.0831C89.5418 61.909 90.1245 63.0079 90.3088 64.2032L90.5161 65.5561C91.2213 70.1424 91.1553 74.8135 90.321 79.3783C90.1223 80.4702 89.5443 81.4579 88.6881 82.1687C87.8319 82.8795 86.7519 83.2683 85.6369 83.2672H67.3963C66.9756 83.2672 66.5631 83.3703 66.1933 83.5685L58.2455 87.8193C58.0133 87.9435 57.7526 88.0056 57.489 87.9996C57.2255 87.9936 56.968 87.9196 56.7417 87.7849C56.5154 87.6502 56.3282 87.4594 56.1982 87.2312C56.0682 87.0029 55.9999 86.745 56 86.4826V69.2589C56.0005 66.7449 56.9554 64.324 58.6733 62.4809C60.3913 60.6378 62.7455 59.5085 65.2646 59.3194L65.6568 59.289ZM65.6527 69.2932C64.979 69.2932 64.3329 69.5596 63.8565 70.0336C63.3802 70.5077 63.1125 71.1507 63.1125 71.8211C63.1125 72.4915 63.3802 73.1345 63.8565 73.6085C64.3329 74.0826 64.979 74.3489 65.6527 74.3489C66.3264 74.3489 66.9725 74.0826 67.4489 73.6085C67.9253 73.1345 68.1929 72.4915 68.1929 71.8211C68.1929 71.1507 67.9253 70.5077 67.4489 70.0336C66.9725 69.5596 66.3264 69.2932 65.6527 69.2932ZM73.7813 69.2932C73.1076 69.2932 72.4615 69.5596 71.9851 70.0336C71.5088 70.5077 71.2411 71.1507 71.2411 71.8211C71.2411 72.4915 71.5088 73.1345 71.9851 73.6085C72.4615 74.0826 73.1076 74.3489 73.7813 74.3489C74.455 74.3489 75.1011 74.0826 75.5775 73.6085C76.0539 73.1345 76.3215 72.4915 76.3215 71.8211C76.3215 71.1507 76.0539 70.5077 75.5775 70.0336C75.1011 69.5596 74.455 69.2932 73.7813 69.2932ZM79.3697 71.8211C79.3697 71.1507 79.6374 70.5077 80.1137 70.0336C80.5901 69.5596 81.2362 69.2932 81.9099 69.2932C82.5836 69.2932 83.2297 69.5596 83.7061 70.0336C84.1825 70.5077 84.4501 71.1507 84.4501 71.8211C84.4501 72.4915 84.1825 73.1345 83.7061 73.6085C83.2297 74.0826 82.5836 74.3489 81.9099 74.3489C81.2362 74.3489 80.5901 74.0826 80.1137 73.6085C79.6374 73.1345 79.3697 72.4915 79.3697 71.8211Z" fill="var(--fill-0, #473DFF)"/>
</g>
<defs>
<filter id="filter0_d_0_715" x="0" y="0" width="147" height="147" filterUnits="userSpaceOnUse" color-interpolation-filters="sRGB">
<feFlood flood-opacity="0" result="BackgroundImageFix"/>
<feColorMatrix in="SourceAlpha" type="matrix" values="0 0 0 0 0 0 0 0 0 0 0 0 0 0 0 0 0 0 127 0" result="hardAlpha"/>
<feOffset/>
<feGaussianBlur stdDeviation="17"/>
<feComposite in2="hardAlpha" operator="out"/>
<feColorMatrix type="matrix" values="0 0 0 0 0.278241 0 0 0 0 0.240253 0 0 0 0 1 0 0 0 0.3 0"/>
<feBlend mode="normal" in2="BackgroundImageFix" result="effect1_dropShadow_0_715"/>
<feBlend mode="normal" in="SourceGraphic" in2="effect1_dropShadow_0_715" result="shape"/>
</filter>
</defs>
</svg>

<svg xmlns="http://www.w3.org/2000/svg" fill="none" overflow="visible" preserveAspectRatio="none" style="display:block" viewBox="0 0 147 147"><g filter="url(#a)"><circle cx="73.5" cy="73.5" r="39.5" fill="var(--fill-0, white)"/></g><path fill="var(--fill-0, #473dff)" fill-rule="evenodd" d="M65.657 59.289a103.5 103.5 0 0 1 16.458.08l3.3.28a5.43 5.43 0 0 1 3.24 1.434 5.4 5.4 0 0 1 1.654 3.12l.207 1.353a41.7 41.7 0 0 1-.195 13.822 4.73 4.73 0 0 1-1.633 2.79 4.77 4.77 0 0 1-3.051 1.1h-18.24c-.421 0-.834.102-1.204.3l-7.947 4.251a1.53 1.53 0 0 1-2.048-.588 1.5 1.5 0 0 1-.198-.748V69.259a9.94 9.94 0 0 1 2.673-6.778 10.04 10.04 0 0 1 6.592-3.162zm-.004 10.004c-.674 0-1.32.267-1.797.74a2.52 2.52 0 0 0 0 3.576 2.546 2.546 0 0 0 3.593 0 2.52 2.52 0 0 0 0-3.575 2.55 2.55 0 0 0-1.796-.74m8.128 0a2.55 2.55 0 0 0-1.796.74 2.52 2.52 0 0 0 0 3.576 2.546 2.546 0 0 0 3.593 0 2.52 2.52 0 0 0 0-3.575 2.55 2.55 0 0 0-1.797-.74m5.589 2.528c0-.67.267-1.313.744-1.787a2.547 2.547 0 0 1 3.592 0 2.52 2.52 0 0 1 0 3.575 2.546 2.546 0 0 1-3.592 0 2.52 2.52 0 0 1-.744-1.788" clip-rule="evenodd"/><defs><filter id="a" width="147" height="147" x="0" y="0" color-interpolation-filters="sRGB" filterUnits="userSpaceOnUse"><feFlood flood-opacity="0" result="BackgroundImageFix"/><feColorMatrix in="SourceAlpha" result="hardAlpha" values="0 0 0 0 0 0 0 0 0 0 0 0 0 0 0 0 0 0 127 0"/><feOffset/><feGaussianBlur stdDeviation="17"/><feComposite in2="hardAlpha" operator="out"/><feColorMatrix values="0 0 0 0 0.278241 0 0 0 0 0.240253 0 0 0 0 1 0 0 0 0.3 0"/><feBlend in2="BackgroundImageFix" result="effect1_dropShadow_0_715"/><feBlend in="SourceGraphic" in2="effect1_dropShadow_0_715" result="shape"/></filter></defs></svg>
